X:3
T:Maltman,The
L:1/8
M:9/8
S:Gow's 2nd Repository
Z:AK/Fiddler's Companion
K:G
D | E/F/GGG2g dBG | F2(A A)EA F2D | E/F/GG G2g def | g2(G G>)AG G2 :|
|: c | Bcdefg dBG | F2(A A)EA F2D | dBd ece def | g2G GAG G2 :|
|: (d2/e/2f/) | g3 f2e dBG | F2(A A)EA F2D | gag f2e def | g2(G G)AG G2 :|
